X: 463
T:High Drive
N: page 188
N: heptatonic
R:reel
C:Gordon Duncan
D:Andrea Beaton, Cuts
Z:Paul Stewart Cranford (P.S.C.), <http://www.cranfordpub.com>
L:1/8
M:C|
Q:200
K:D
A|"D" d2 de fedA|"G"B2gB "A7"BAGB|"D" GA A/A/A fedf|"A7" eA A/A/A afge|
"D"d2de fedA|"G" B/B/B gB BAGB|"D" GA A/A/A fedf|[1"A"eAce "D" d3:|[2"A" eAce "D" d2|
|:fg|"D" a2 ag ad d/d/d|"G" AB B/B/B "A7" gBdB|"D" GA A/A/A fedf|"A7" eA A/A/A efge|
[1"D" a2 ag ad d/d/d|"G" AB B/B/B gBdB|"D" GA A/A/A fedf|"A" eAce "D" d2:|
[2"D" d2 de fedA|"G" B2 gB BAGB|"D" GA A/A/A fedf|"A"eAce "D" d3||
